static/img/kroki/1826e70df0037dfb3273e4179f34d66b.svg

<?xml version="1.0" encoding="us-ascii" standalone="no"?><svg xmlns="http://www.w3.org/2000/svg" xmlns:xlink="http://www.w3.org/1999/xlink" contentStyleType="text/css" height="252px" preserveAspectRatio="none" style="width:370px;height:252px;" version="1.1" viewBox="0 0 370 252" width="370px" zoomAndPan="magnify"><defs/><g><!--class azure_network_ip_allocation--><g id="elem_azure_network_ip_allocation"><rect codeLine="23" fill="#3D176E" height="39.7891" id="azure_network_ip_allocation" rx="2.5" ry="2.5" style="stroke:#000D19;stroke-width:0.5;" width="281" x="21.5" y="206.58"/><ellipse cx="36.5" cy="226.4745" fill="#ADD1B2" rx="11" ry="11" style="stroke:#181818;stroke-width:1.0;"/><path d="M39.4688,232.1152 Q38.8906,232.412 38.25,232.5527 Q37.6094,232.7089 36.9063,232.7089 Q34.4063,232.7089 33.0781,231.0683 Q31.7656,229.412 31.7656,226.287 Q31.7656,223.162 33.0781,221.5058 Q34.4063,219.8495 36.9063,219.8495 Q37.6094,219.8495 38.25,220.0058 Q38.9063,220.162 39.4688,220.4589 L39.4688,223.1777 Q38.8438,222.5995 38.25,222.3339 Q37.6563,222.0527 37.0313,222.0527 Q35.6875,222.0527 35,223.1308 Q34.3125,224.1933 34.3125,226.287 Q34.3125,228.3808 35,229.4589 Q35.6875,230.5214 37.0313,230.5214 Q37.6563,230.5214 38.25,230.2558 Q38.8438,229.9745 39.4688,229.3964 L39.4688,232.1152 Z " fill="#000000"/><text fill="#D9B8FF" font-family="Helvetica" font-size="17" lengthAdjust="spacing" textLength="239" x="55.5" y="232.3598">azure_network_ip_allocation</text></g><!--class azure_network_subnet--><g id="elem_azure_network_subnet"><rect codeLine="26" fill="#3D176E" height="39.7891" id="azure_network_subnet" rx="2.5" ry="2.5" style="stroke:#000D19;stroke-width:0.5;" width="233" x="130.5" y="106.79"/><ellipse cx="145.5" cy="126.6845" fill="#ADD1B2" rx="11" ry="11" style="stroke:#181818;stroke-width:1.0;"/><path d="M148.4688,132.3252 Q147.8906,132.622 147.25,132.7627 Q146.6094,132.9189 145.9063,132.9189 Q143.4063,132.9189 142.0781,131.2783 Q140.7656,129.622 140.7656,126.497 Q140.7656,123.372 142.0781,121.7158 Q143.4063,120.0595 145.9063,120.0595 Q146.6094,120.0595 147.25,120.2158 Q147.9063,120.372 148.4688,120.6689 L148.4688,123.3877 Q147.8438,122.8095 147.25,122.5439 Q146.6563,122.2627 146.0313,122.2627 Q144.6875,122.2627 144,123.3408 Q143.3125,124.4033 143.3125,126.497 Q143.3125,128.5908 144,129.6689 Q144.6875,130.7314 146.0313,130.7314 Q146.6563,130.7314 147.25,130.4658 Q147.8438,130.1845 148.4688,129.6064 L148.4688,132.3252 Z " fill="#000000"/><text fill="#D9B8FF" font-family="Helvetica" font-size="17" lengthAdjust="spacing" textLength="191" x="164.5" y="132.5698">azure_network_subnet</text></g><!--class azure_network_virtual_network--><g id="elem_azure_network_virtual_network"><rect codeLine="29" fill="#3D176E" height="39.7891" id="azure_network_virtual_network" rx="2.5" ry="2.5" style="stroke:#000D19;stroke-width:0.5;" width="310" x="7" y="7"/><ellipse cx="22" cy="26.8945" fill="#ADD1B2" rx="11" ry="11" style="stroke:#181818;stroke-width:1.0;"/><path d="M24.9688,32.5352 Q24.3906,32.832 23.75,32.9727 Q23.1094,33.1289 22.4063,33.1289 Q19.9063,33.1289 18.5781,31.4883 Q17.2656,29.832 17.2656,26.707 Q17.2656,23.582 18.5781,21.9258 Q19.9063,20.2695 22.4063,20.2695 Q23.1094,20.2695 23.75,20.4258 Q24.4063,20.582 24.9688,20.8789 L24.9688,23.5977 Q24.3438,23.0195 23.75,22.7539 Q23.1563,22.4727 22.5313,22.4727 Q21.1875,22.4727 20.5,23.5508 Q19.8125,24.6133 19.8125,26.707 Q19.8125,28.8008 20.5,29.8789 Q21.1875,30.9414 22.5313,30.9414 Q23.1563,30.9414 23.75,30.6758 Q24.3438,30.3945 24.9688,29.8164 L24.9688,32.5352 Z " fill="#000000"/><text fill="#D9B8FF" font-family="Helvetica" font-size="17" lengthAdjust="spacing" textLength="268" x="41" y="32.7798">azure_network_virtual_network</text></g><!--link azure_network_subnet to azure_network_ip_allocation--><g id="link_azure_network_subnet_azure_network_ip_allocation"><path codeLine="32" d="M230.21,147.01 C215.31,164.15 197.5849,184.5305 182.6949,201.6705 " fill="none" id="azure_network_subnet-to-azure_network_ip_allocation" style="stroke:#1A83AF;stroke-width:2.0;"/><polygon fill="#1A83AF" points="178.76,206.2,187.682,202.029,182.0391,202.4254,181.6427,196.7825,178.76,206.2" style="stroke:#1A83AF;stroke-width:2.0;"/></g><!--link azure_network_virtual_network to azure_network_ip_allocation--><g id="link_azure_network_virtual_network_azure_network_ip_allocation"><path codeLine="33" d="M145.73,47.17 C134.08,62.29 119.37,84.46 113,106.79 C108.15,123.8 108.15,129.58 113,146.58 C119.37,168.91 130.4195,186.326 142.0695,201.456 " fill="none" id="azure_network_virtual_network-to-azure_network_ip_allocation" style="stroke:#1A83AF;stroke-width:2.0;"/><polygon fill="#1A83AF" points="145.73,206.21,143.4085,196.6387,142.6795,202.2483,137.0699,201.5194,145.73,206.21" style="stroke:#1A83AF;stroke-width:2.0;"/></g><!--link azure_network_virtual_network to azure_network_subnet--><g id="link_azure_network_virtual_network_azure_network_subnet"><path codeLine="34" d="M178.79,47.22 C193.69,64.36 211.4151,84.7405 226.3051,101.8805 " fill="none" id="azure_network_virtual_network-to-azure_network_subnet" style="stroke:#1A83AF;stroke-width:2.0;"/><polygon fill="#1A83AF" points="230.24,106.41,227.3573,96.9925,226.9609,102.6354,221.318,102.239,230.24,106.41" style="stroke:#1A83AF;stroke-width:2.0;"/></g><!--SRC=[jP11Qy9048Nl-HKBdWLJQTLB8HMalKYflPKYa-oiBjdiXjc9egN_lThKiaqqddhRdVVntfjPQua2Yv9tei0YHVAHpxKjWQ0G2P7RJfrn97fAWHgEckBCMRuApA50yOXcWwmpQ1AlQvtb5hqNDu7q05c-8bTPMTipWVK72Iq7rDI0zmapwRHY3Ch8IJfMgaasJNj36O_ki8KvaaW_o60maF6aYLoDwjpxbrZeFOeuFDhSCRPgjYA-gSwMHo8esLhqf5_i-0nIQhiIjy7ifUv45kdFVB46wRP7Me7nOOnd97IyAt7QsWedOwb6P-6dIt2K7KydO5yHBYtorb6-rEKIZ74Pi7PMV4JHvrdCL-dXULdVQE8ApEbVWsSj-c-zE1aFazbx_xwhIzGTyFysTT_e2m00]--></g></svg>

<svg xmlns="http://www.w3.org/2000/svg" width="370" height="252" viewBox="0 0 370 252"><rect width="281" height="39.789" x="21.5" y="206.58" fill="#3D176E" rx="2.5" ry="2.5" style="stroke:#000d19;stroke-width:.5"/><circle cx="36.5" cy="226.475" r="11" fill="#ADD1B2" style="stroke:#181818;stroke-width:1"/><path d="M39.469 232.115q-.578.297-1.219.438-.64.156-1.344.156-2.5 0-3.828-1.64-1.312-1.657-1.312-4.782t1.312-4.781q1.328-1.656 3.828-1.656.703 0 1.344.156.656.156 1.219.453v2.719q-.625-.578-1.219-.844-.594-.281-1.219-.281-1.343 0-2.031 1.078-.687 1.062-.687 3.156t.687 3.172q.688 1.062 2.031 1.062.625 0 1.219-.265.594-.281 1.219-.86z"/><text x="55.5" y="232.36" fill="#D9B8FF" font-family="Helvetica" font-size="17" textLength="239">azure_network_ip_allocation</text><rect width="233" height="39.789" x="130.5" y="106.79" fill="#3D176E" rx="2.5" ry="2.5" style="stroke:#000d19;stroke-width:.5"/><circle cx="145.5" cy="126.684" r="11" fill="#ADD1B2" style="stroke:#181818;stroke-width:1"/><path d="M148.469 132.325q-.578.297-1.219.438-.64.156-1.344.156-2.5 0-3.828-1.64-1.312-1.657-1.312-4.782t1.312-4.781q1.328-1.656 3.828-1.656.703 0 1.344.156.656.156 1.219.453v2.719q-.625-.579-1.219-.844-.594-.281-1.219-.281-1.344 0-2.031 1.078-.687 1.062-.687 3.156t.687 3.172q.688 1.062 2.031 1.062.625 0 1.219-.265.594-.281 1.219-.86z"/><text x="164.5" y="132.57" fill="#D9B8FF" font-family="Helvetica" font-size="17" textLength="191">azure_network_subnet</text><rect width="310" height="39.789" x="7" y="7" fill="#3D176E" rx="2.5" ry="2.5" style="stroke:#000d19;stroke-width:.5"/><circle cx="22" cy="26.895" r="11" fill="#ADD1B2" style="stroke:#181818;stroke-width:1"/><path d="M24.969 32.535q-.578.297-1.219.438-.64.156-1.344.156-2.5 0-3.828-1.64-1.312-1.657-1.312-4.782t1.312-4.781q1.328-1.656 3.828-1.656.703 0 1.344.156.656.156 1.219.453v2.719q-.625-.578-1.219-.844-.594-.281-1.219-.281-1.343 0-2.031 1.078-.687 1.062-.687 3.156t.687 3.172q.688 1.062 2.031 1.062.625 0 1.219-.265.594-.281 1.219-.86z"/><text x="41" y="32.78" fill="#D9B8FF" font-family="Helvetica" font-size="17" textLength="268">azure_network_virtual_network</text><path fill="none" d="M230.21 147.01c-14.9 17.14-32.625 37.52-47.515 54.66" style="stroke:#1a83af;stroke-width:2"/><path fill="#1A83AF" d="m178.76 206.2 8.922-4.171-5.643.396-.396-5.643z" style="stroke:#1a83af;stroke-width:2"/><path fill="none" d="M145.73 47.17c-11.65 15.12-26.36 37.29-32.73 59.62-4.85 17.01-4.85 22.79 0 39.79 6.37 22.33 17.42 39.746 29.07 54.876" style="stroke:#1a83af;stroke-width:2"/><path fill="#1A83AF" d="m145.73 206.21-2.321-9.571-.73 5.61-5.61-.73z" style="stroke:#1a83af;stroke-width:2"/><path fill="none" d="M178.79 47.22c14.9 17.14 32.625 37.52 47.515 54.66" style="stroke:#1a83af;stroke-width:2"/><path fill="#1A83AF" d="m230.24 106.41-2.883-9.417-.396 5.642-5.643-.396z" style="stroke:#1a83af;stroke-width:2"/></svg>
